X: 32228
T: Phrygian Whistle, The
R: reel
M: 4/4
K: Dmajor
G|FccB c2Bc|dBBc ABGA|FccB c2ef|dGBd ~c3:|
F|f~c3 d~c3|cBAc BAF2|f~c3 d~c3|Bcec c~e3|
~f3c d~c3|cBAc BAF2|EFAF BFcF|fffe cBAe||
c~F3 G~F3|c~F3 GFAB|c~F3 GFcF|~F2GE ~F3B|
c~F3 G~F3|c~F3 E^DEF|BABc DEFA|BFFE ~F3F||
fFeF dFcF|B~c3 E~F3|fFeF dFcF|BABc ecce|
~f3c d~c3|cBAc BAF2|EFAF cBAG|BAGE ~F3||

